src/components/ui/Rating/rating-star.svg

<svg width="16" height="14" viewBox="0 0 16 14" fill="none" stroke="#D1D1D1" xmlns="http://www.w3.org/2000/svg">
<path fill-rule="evenodd" clip-rule="evenodd" d="M7.33312 1.12662C7.37917 0.980587 7.47057 0.853041 7.59406 0.762504C7.71754 0.671967 7.86667 0.623154 8.01979 0.623154C8.1729 0.623154 8.32203 0.671967 8.44552 0.762504C8.569 0.853041 8.6604 0.980587 8.70645 1.12662L9.94645 4.93995H13.9465C14.105 4.93395 14.2612 4.98004 14.3912 5.07117C14.5211 5.16231 14.6176 5.29347 14.666 5.44463C14.7144 5.59578 14.7119 5.75862 14.659 5.90825C14.6062 6.05789 14.5057 6.18609 14.3731 6.27328L11.1265 8.62661L12.3665 12.4466C12.4155 12.5921 12.4167 12.7495 12.37 12.8958C12.3232 13.042 12.2309 13.1695 12.1066 13.2596C11.9823 13.3497 11.8324 13.3977 11.6788 13.3965C11.5253 13.3954 11.3761 13.3452 11.2531 13.2533L7.99979 10.8733L4.75312 13.2333C4.63012 13.3252 4.48096 13.3754 4.32741 13.3765C4.17387 13.3777 4.02398 13.3297 3.89963 13.2396C3.77529 13.1495 3.68301 13.022 3.63626 12.8758C3.58951 12.7295 3.59075 12.5721 3.63979 12.4266L4.87979 8.60661L1.63312 6.25328C1.50051 6.16609 1.40009 6.03789 1.3472 5.88825C1.29431 5.73862 1.29187 5.57578 1.34024 5.42463C1.38861 5.27347 1.48513 5.14231 1.61506 5.05117C1.745 4.96004 1.90119 4.91395 2.05979 4.91995H6.05979L7.33312 1.12662Z" stroke-linecap="round" stroke-linejoin="round"/>
</svg>

<svg width="16" height="14" fill="none" stroke="#D1D1D1" xmlns="http://www.w3.org/2000/svg"><path clip-rule="evenodd" d="M7.333 1.127a.72.72 0 0 1 1.373 0l1.24 3.813h4a.727.727 0 0 1 .427 1.333l-3.246 2.354 1.24 3.82a.72.72 0 0 1-1.114.806L8 10.873l-3.247 2.36a.72.72 0 0 1-1.113-.806l1.24-3.82-3.247-2.354A.727.727 0 0 1 2.06 4.92h4l1.273-3.793Z" stroke-linecap="round" stroke-linejoin="round"/></svg>
